X: 11
T: He bian ge
%%abc-version 2.0
%%abcx-abcm2ps-target-version 5.9.1 (29 Sep 2008)
%%abc-creator hum2abc beta
%%abcx-conversion-date 2013/10/02 07:44:27
%%abc-edited-by Helmut Schaffrath
%%humdrum-veritas 3615564649
%%humdrum-veritas-data 1902264567
%%continueall 1
%%barnumbers 0
L: 1/4
M: 3/4
K: F
GD [I:setbarnb 1]| 
FA | 
c2 | 
AF | 
FA/ G/ | 
FF | 
GD | 
D/ G/F | 
Ac2 | 
[M:2/4]A/ G/ A/ G/ | 
G/ F/D | 
F2 | 
D/ G/D | 
FA/ G/ | 
[M:3/4]DF/ G/ A/ G/ | 
[M:2/4]F2 | 
DG | 
FA | 
c2 | 
A/ c/ G/ A/ | 
FD | 
F2 | 
FG | 
Ac- | 
c2 | 
Gc | 
GG/ A/ | 
FF | 
GD- | 
D2 |]  



